!!!!SEGMENT: pl-cz--iii-739--002_zebrowski-marcin-jozef--andante-pro-processione-in-d.krn
!!!cenid: 17xx:2328
!!!COM: Żebrowski, Marcin Józef
!!!COM-rismid: pe30020322
!!!CDT: 1702-1770/06/29
!!!CNT: Polish
!!!OTL: Andante pro processione in D
!!!PDT:
!!!AGN:
!!!SMS-siglum: PL-CZ
!!!SMS-shelfmark: III-739
!!!SMS-shelfwork: 002 W
!!!SMS-variant:
!!!SMS-altvar:
!!!NIFC-rismid: 300033515
!!!URL-scan: https://repozytorium.nifc.pl/islandora/object/pl-cz%3A25069/datastream/PDF/view
!!!ONB-nifc: UWAGA: w zbiorze 2 Andante: 1. in g, 2. in D
!!!key: D
**kern	**kern	**dynam	**kern	**dynam	**kern	**kern	**kern	**kern
*part7	*part6	*part6	*part5	*part5	*part4	*part3	*part2	*part1
*staff7	*staff6	*	*staff5	*	*staff4	*staff3	*staff2	*staff1
*group	*group3	*group3	*group3	*group3	*group2	*group2	*group1	*group1
*I"Baſso Continuo	*I"Violino Secondo.	*	*I"Violino Primo.	*	*I"Clarino Secondo ex D	*I"Clarino Primo ex D	*I"Hoboe Secondo.	*I"Hoboe Primo.
*I'bc	*I'vl 2	*	*I'vl 1	*	*I'clno 2	*I'clno 1	*I'ob 2	*I'ob 1
*I	*Ivioln	*	*Ivioln	*	*Iclrno	*Iclrno	*Ioboe	*Ioboe
*IC	*ICstr	*	*ICstr	*	*ICbras	*ICbras	*ICww	*ICww
*IGcont	*	*	*	*	*	*	*	*
*clefF4	*clefG2	*	*clefG2	*	*clefG2	*clefG2	*clefG2	*clefG2
*	*	*	*	*	*ITrd-1c-2	*ITrd-1c-2	*	*
*k[f#c#]	*k[f#c#]	*	*k[f#c#]	*	*k[f#c#]	*k[f#c#]	*k[f#c#]	*k[f#c#]
*D:	*D:	*	*D:	*	*D:	*D:	*D:	*D:
*M4/4	*M4/4	*	*M4/4	*	*M4/4	*M4/4	*M4/4	*M4/4
*met(c)	*met(c)	*	*met(c)	*	*met(c)	*met(c)	*met(c)	*met(c)
!LO:TX:a:i:t=Andante	!LO:TX:a:i:t=Andante.	!	!LO:TX:a:i:t=Andante.	!	!LO:TX:a:i:t=Andante	!LO:TX:a:i:t=Andante.	!LO:TX:a:i:t=Andante.	!LO:TX:a:i:t=Andante.
8r	8r	.	8dd\	.	8r	8r	8r	8r
=1	=1	=1	=1	=1	=1	=1	=1	=1
*Xtuplet	*Xtuplet	*	*Xtuplet	*	*	*	*	*
!	!LO:TUP:a:problem:klamra łukowa bez numeru	!	!LO:TUP:a:problem:klamra łukowa, kropka zamiast numeru	!	!	!	!	!
8D\L	24ff#\LL	.	24aa\LL	.	8d/L|	8d/L|	4ff#\	4aa\
.	24ee\	.	24gg\	.	.	.	.	.
.	24dd\JJ	.	24ff#\JJ	.	.	.	.	.
!	!LO:TUP:a:problem:klamra łukowa bez numeru	!	!LO:TUP:a:problem:klamra łukowa bez numeru	!	!	!	!	!
.	.	.	8qqgg/	.	.	.	.	.
8D\J	24dd\LL	.	24ff#\LL	.	8d/|	8d/|	.	.
.	24ee\	.	24ee\	.	.	.	.	.
.	24ff#\JJ	.	24dd\JJ	.	.	.	.	.
24D\LL	8gg\L	.	8bb\L	.	8d/|	8d/|	8gg\L	8bb\L
24d\	.	.	.	.	.	.	.	.
24cn\JJ	.	.	.	.	.	.	.	.
24B\LL	8gg\J	.	8bb\J	.	8d/J|	8d/J|	8gg\J	8bb\J
24A\	.	.	.	.	.	.	.	.
24G\JJ	.	.	.	.	.	.	.	.
!	!	!	!LO:TUP:a:problem:klamra łukowa bez numeru	!	!	!	!	!
8D\L	24ff#\LL	.	24aa\LL	.	8d/L|	8d/L|	4ff#\	4aa\
.	24ee\	.	24gg\	.	.	.	.	.
.	24dd\JJ	.	24ff#\JJ	.	.	.	.	.
.	.	.	8qqgg/	.	.	.	.	.
8D\J	24dd\LL	.	24ff#\LL	.	8d/|	8d/|	.	.
.	24ee\	.	24ee\	.	.	.	.	.
.	24ff#\JJ	.	24dd\JJ	.	.	.	.	.
!	!LO:TX:a:t=P:problem:mixed beam	!	!	!	!	!	!	!
24d\LL	8f#/L	.	8ddd\L	.	8d/|	8d/|	4r	4r
24c\	.	.	.	.	.	.	.	.
24G\JJ	.	.	.	.	.	.	.	.
24F#\LL	8ff#\J	.	8ddd\J	.	8d/J|	8d/J|	.	.
24E\	.	.	.	.	.	.	.	.
24D\JJ	.	.	.	.	.	.	.	.
=2	=2	=2	=2	=2	=2	=2	=2	=2
!	!	!	!LO:TUP:a:problem:klamra łukowa bez numeru	!	!	!	!LO:TX:a:t=1.	!LO:TX:a:t=1.
8AA/L	24ee\LL	.	24ccc#\LL	.	8A/L|	8a/L|	1r	1r
.	24gg\	.	24bb\	.	.	.	.	.
.	24ff#\JJ	.	24aa\JJ	.	.	.	.	.
!	!	!	!LO:TUP:a:problem:klamra łukowa bez numeru	!	!	!	!	!
8AA/	24gg\LL	.	24bb\LL	.	8A/|	8a/|	.	.
.	24ff#\	.	24aa\	.	.	.	.	.
.	24ee\JJ	.	24gg\JJ	.	.	.	.	.
8AA/	24ff#\LL	.	24aa\LL	.	8A/|	8a/|	.	.
.	24ee\	.	24gg\	.	.	.	.	.
.	24dd\JJ	.	24ff#\JJ	.	.	.	.	.
8AA/J	24ee\LL	.	24gg\LL	.	8A/J|	8a/J|	.	.
.	24dd\	.	24ff#\	.	.	.	.	.
.	24cc#\JJ	.	24ee\JJ	.	.	.	.	.
8D\L	24dd\LL	.	24ff#\LL	.	8d/L|	8d/L|	.	.
.	24a\	.	24dd\	.	.	.	.	.
.	24dd\JJ	.	24ff#\JJ	.	.	.	.	.
8D\J	24ff#\LL	.	24aa\LL	.	8d/|	8d/|	.	.
.	24dd\	.	24ff#\	.	.	.	.	.
.	24ff#\JJ	.	24aa\JJ	.	.	.	.	.
!	!LO:TX:a:t=P:problem:mixed beam	!	!	!	!	!	!	!
24d\LL	8f#/L	.	8ddd\L	.	8d/|	8d/|	.	.
24A\	.	.	.	.	.	.	.	.
24G\JJ	.	.	.	.	.	.	.	.
24F#\LL	8ff#\J	.	8ddd\J	.	8d/J|	8d/J|	.	.
24E\	.	.	.	.	.	.	.	.
24D\JJ	.	.	.	.	.	.	.	.
=3	=3	=3	=3	=3	=3	=3	=3	=3
!LO:TX:a:t=P:problem:mixed beam	!	!	!	!	!	!	!	!
8A\L	24ee\LL	.	24ccc#\LL	.	8A/L	8a/L|	2r	2r
.	24gg\	.	24bb\	.	.	.	.	.
.	24ff#\JJ	.	24aa\JJ	.	.	.	.	.
!	!	!	!	!	!	!	!	!
8A\	24gg\LL	.	24bb\LL	.	8A/	8a/|	.	.
.	24ff#\	.	24aa\	.	.	.	.	.
.	24ee\JJ	.	24gg\JJ	.	.	.	.	.
!	!	!	!	!	!	!	!	!
8AA/	24ff#\LL	.	24aa\LL	.	8A/	8a/|	.	.
.	24ee\	.	24gg\	.	.	.	.	.
.	24dd\JJ	.	24ff#\JJ	.	.	.	.	.
!	!	!	!	!	!	!	!	!
8AA/J	24ee\LL	.	24gg\LL	.	8A/J	8a/J|	.	.
.	24dd\	.	24ff#\	.	.	.	.	.
!	!	!	!LO:SIC:v:t=custos ff	!	!	!	!	!
.	24cc#\JJ	.	24ee\JJ	.	.	.	.	.
!	!	!	!LO:LB:g=original	!	!	!	!	!
!	!	!	!LO:TUP:a:problem:klamra łukowa, kropka zamiast numeru	!	!	!LO:TX:a:t=P:problem:mixed beam	!	!
8d\L	24dd\LL	.	24ff#\LL	.	8d/L	8dd\L	4r	4r
.	24ee\	.	24ee\	.	.	.	.	.
.	24ff#\JJ	.	24dd\JJ	.	.	.	.	.
16.A\L	16.a/LL	.	16.a/LL	.	16.a/L	16.a/L	.	.
32F#\JJk	32f#/JJk	.	32f#/JJk	.	32f#/JJk	32f#/JJk	.	.
4D\	4ff# 4a 4d/	.	4ff# 4a 4d/	.	8d/	8d/	8r	8r
!	!	!	!	!	!	!	!LO:TX:a:i:t=Solo.	!LO:TX:a:i:t=Solo.
.	.	.	.	.	8r	8r	16dd\LL	16ff#\LL
.	.	.	.	.	.	.	16ee\JJ	16gg\JJ
!LO:LB:g=original	!LO:LB:g=original	!	!	!	!	!	!	!
=4	=4	=4	=4	=4	=4	=4	=4	=4
!	!LO:TX:a:t=1.	!	!LO:TX:a:t=1.	!	!	!	!	!
24d\LL	1r	.	1r	.	16r	16r	8ff#\L	8aa\L
24A\	.	.	.	.	.	.	.	.
.	.	.	.	.	16ff#\LL	16aa\LL	.	.
24G\JJ	.	.	.	.	.	.	.	.
24F#\LL	.	.	.	.	16ff#\	16aa\	[>8ff#\J	[8aa\J
24G\	.	.	.	.	.	.	.	.
.	.	.	.	.	16ff#\JJ	16aa\JJ	.	.
24A\JJ	.	.	.	.	.	.	.	.
*	*	*	*	*	*	*	*Xtuplet	*Xtuplet
8D\	.	.	.	.	4ff#t\	4aaT\	24ff#\LL]	24aa\LL]
.	.	.	.	.	.	.	24dd\	24ff#\
.	.	.	.	.	.	.	24ee\JJ	24gg\JJ
8r	.	.	.	.	.	.	24ff#\LL	24aa\LL
.	.	.	.	.	.	.	24ee\	24gg\
.	.	.	.	.	.	.	24dd\JJ	24ff#\JJ
!	!	!	!	!	!LO:LB:g=original	!	!	!
24A\LL	.	.	.	.	16r	16r	8ee\L	8gg\L
24E\	.	.	.	.	.	.	.	.
.	.	.	.	.	16ee\LL	16gg\LL	.	.
24D\JJ	.	.	.	.	.	.	.	.
24C#\LL	.	.	.	.	16ee\	16gg\	[>8ee\J	[>8gg\J
24D\	.	.	.	.	.	.	.	.
.	.	.	.	.	16ee\JJ	16gg\JJ	.	.
24E\JJ	.	.	.	.	.	.	.	.
8AA/	.	.	.	.	4eeT\	4ggT\	24ee\LL]	24gg\LL]
.	.	.	.	.	.	.	24cc#\	24ee\
.	.	.	.	.	.	.	24dd\JJ	24ff#\JJ
8r	.	.	.	.	.	.	24ee\LL	24gg\LL
.	.	.	.	.	.	.	24dd\	24ff#\
.	.	.	.	.	.	.	24cc#\JJ	24ee\JJ
!	!	!	!	!	!	!LO:LB:g=original	!	!
=5	=5	=5	=5	=5	=5	=5	=5	=5
8GG#X/L	2r	.	2r	.	4dd\	4ff#\	24dd\LL	24ff#\LL
.	.	.	.	.	.	.	24ee\	24ee\
.	.	.	.	.	.	.	24ff#\JJ	24dd\JJ
8GG#/	.	.	.	.	.	.	24dd\LL	24ff#\LL
.	.	.	.	.	.	.	24ee\	24ee\
.	.	.	.	.	.	.	24ff#\JJ	24dd\JJ
8GG#/	.	.	.	.	4r	4r	8.ff#\L	8.ddd\L
8GG#/J	.	.	.	.	.	.	.	.
.	.	.	.	.	.	.	16dd\Jk	16ff#\Jk
!	!	!	!	!	!	!	!LO:LB:g=original	!
.	.	.	.	.	.	.	8qqee/	8qqgg/
8AA/L	4r	.	4r	.	2r	2r	8dd\L	8ff#\L
8AA/	.	.	.	.	.	.	8cc#\J	8ee\J
8Cn/	8r	.	[>4aa\	.	.	.	8r	[>4aa\
8C/J	8ee\	.	.	.	.	.	8ee\	.
!	!	!	!	!	!	!	!	!LO:LB:g=original
=6	=6	=6	=6	=6	=6	=6	=6	=6
.	8qqee/	.	.	.	.	.	8qqee/	.
8BB/L	8.dd#X\L	.	16aa\LL]	.	4.ff#\	4.aa\	8.dd#X\L	16aa\LL]
.	.	.	(>16gg'\	.	.	.	.	(>16gg'\
8BB/	.	.	16ff#'\	.	.	.	.	16ff#'\
.	16ccn\Jk	.	16ee'\JJ	.	.	.	16ccn\Jk	16ee'\JJ
8BB/	(<16b~/LL	.	16dd#X'\LL	.	.	.	16b/LL	16dd#X'\LL
.	16a~/	.	16ccn'\	.	.	.	16a/	16ccn'\
8BB/J	16g~/	.	16b'\	.	8ff#\	8aa\	16g/	16b'\
.	16f#~/JJ)	.	16a'\JJ)	.	.	.	16f#/JJ	16a'\JJ)
!LO:TX:a:t=P:problem:mixed beam	!	!	!	!	!	!	!	!
.	8qqg/	.	8qqb/	.	.	.	.	8qqb/
8E\L	8f#/L	.	8a/L	.	8ff#\L	8aa\L	8f#/L	8a/L
8EE/	8e/J	.	8g/J	.	8ee\J	8gg\J	8e/J	8g/J
8BB/	8r	.	[>4gg\	.	4r	4r	8r	[>4gg\
8BB/J	8ddn\	.	.	.	.	.	8dd#\	.
=7	=7	=7	=7	=7	=7	=7	=7	=7
.	8qqdd/	.	.	.	.	.	.	.
8AA/L	8.cc#X\L	.	16gg\LL]	.	4.ee\	4.gg\	8.cc#X\L	16gg\LL]
.	.	.	(>16ff#'\	.	.	.	.	(>16ff#'\
8AA/	.	.	16ee'\	.	.	.	.	16ee'\
.	16b\Jk	.	16dd'\JJ	.	.	.	16b\Jk	16ddn'\JJ
8AA/	(<16a~/LL	.	16cc#X'\LL	.	.	.	16a/LL	16cc#X'\LL
.	16g~/	.	16b'\	.	.	.	16g/	16b'\
8AA/J	16f#~/	.	16a'\	.	8ee\	8gg\	16f#/	16a'\
.	16e~/JJ)	.	16g'\JJ)	.	.	.	16e/JJ	16g'\JJ)
!LO:TX:a:t=P:problem:mixed beam	!	!	!	!	!	!	!	!
.	8qqf#/	.	8qqa/	.	.	.	.	8qqa/
8D\L	8e/L	.	8g/L	.	8ee\L	8gg\L	8e/L	8g/L
8DD/J	8d/J	.	8f#/J	.	8dd\J	8ff#\J	8d/J	8f#/J
!LO:LB:g=original	!	!	!	!	!	!	!	!
24r	[<4f#/	.	[>4dd\	.	4r	4r	[<4f#/	[>4dd\
24A\LL	.	.	.	.	.	.	.	.
24G\JJ	.	.	.	.	.	.	.	.
24F#\LL	.	.	.	.	.	.	.	.
24E\	.	.	.	.	.	.	.	.
24D\JJ	.	.	.	.	.	.	.	.
=8	=8	=8	=8	=8	=8	=8	=8	=8
8AA/L	16f#/LL]	.	16dd\LL]	.	2r	2r	16f#/LL]	16dd\LL]
.	(<16f#/	.	(>16dd\	.	.	.	(<16f#/	(>16dd\
8AA/	16e/	.	16cc#\	.	.	.	16e/	16cc#\
.	16d/JJ)	.	16b\JJ)	.	.	.	16d/JJ)	16b\JJ)
8AA/	16e/LL	.	16cc#\LL	.	.	.	16e/LL	16cc#\LL
.	16f#/J	.	16dd\J	.	.	.	16f#/J	16dd\J
8AA/J	[<8g/J	.	[>8ee\J	.	.	.	[<8g/J	[>8ee\J
!	!	!	!LO:LB:g=original	!	!	!	!	!
8AA/L	16g/LL]	.	16ee\LL]	.	4r	4r	16g/LL]	16ee\LL]
.	(<16g/	.	(>16ee\	.	.	.	(<16g/	(>16ee\
8AA/	16f#/	.	16dd\	.	.	.	16f#/	16dd\
.	16e/JJ)	.	16cc#\JJ)	.	.	.	16e/JJ)	16cc#\JJ)
!	!LO:TX:a:t=P:problem:mixed beam	!	!	!	!	!	!LO:TX:a:t=P:problem:mixed beam	!
8AA/	8f#/L	.	16dd\LL	.	[>4dd\	[>4ff#\	8f#/L	16dd\LL
.	.	.	16ee\J	.	.	.	.	16ee\J
8AA/J	[>8dd\J	.	[>8ff#\J	.	.	.	[>8dd\J	[>8ff#\J
!	!LO:LB:g=original	!	!	!	!	!	!LO:LB:g=original	!
=9	=9	=9	=9	=9	=9	=9	=9	=9
!	!	!	!	!	!LO:TX:a:t=P:problem:mixed beam	!	!	!
8AA/L	16dd\LL]	.	16ff#\LL]	.	8dd\L]	8ff#\L]	16dd\LL]	16ff#\LL]
.	(>16dd\	.	(>16ff#\	.	.	.	(>16dd\	(>16ff#\
8AA/	16cc#\	.	16ee\	.	16a/L	16ee\L	16cc#\	16ee\
.	16b\JJ)	.	16dd\JJ)	.	16f#/JJ	16dd\JJ	16b\JJ)	16dd\JJ)
8AA/	16cc#\LL	.	16ee\LL	.	16a\LL	16ee\LL	16cc#\LL	16ee\LL
.	16dd\J	.	16ff#\J	.	16dd\J	16ff#\J	16dd\J	16ff#\J
8AA/J	[>8ee\J	.	[>8gg\J	.	[>8ee\J	[>8gg\J	[>8ee\J	[>8gg\J
!	!	!	!	!	!LO:LB:g=original	!	!	!
8D\L	16ee\LL]	.	16gg\LL]	.	8ee\L]	8gg\L]	16ee\LL]	16gg\LL]
.	(>16ee\	.	(>16gg\	.	.	.	(>16ee\	(>16gg\
8D\	16dd\	.	16ff#\	.	16dd\L	16ff#\L	16dd\	16ff#\
.	16cc#\JJ)	.	16ee\JJ)	.	16a\JJ	16ee\JJ	16cc#\JJ)	16ee\JJ)
!	!LO:TX:a:t=P:problem:mixed beam	!	!	!	!	!	!	!
8D\	(>16dd\LL	.	16ff#\LL	.	16dd\LL	16ff#\LL	(>16dd\LL	16ff#\LL
.	16ee\	.	16gg\J	.	16ee\J	16gg\J	16ee\	16gg\J
8D\J	16ff#\)	.	[>8aa\J	.	8ff#\J	8aa\J	16ff#\)	[>8aa\J
.	16a/JJ|<	.	.	.	.	.	16a/JJ|<	.
!	!	!	!	!	!	!	!	!LO:LB:g=original
=10	=10	=10	=10	=10	=10	=10	=10	=10
.	.	.	.	.	.	.	8qqa/	.
4GG/	4.b/	.	16aa\LL]	.	4ff#\	4aa\	4.b/	16aa\LL]
.	.	.	(>16aa\	.	.	.	.	(>16aa\
.	.	.	16gg\	.	.	.	.	16gg\
.	.	.	16ff#\JJ)	.	.	.	.	16ff#\JJ)
4G\	.	.	(16ee\LL	.	8ee\L	8gg\L	.	(>16ee\LL
.	.	.	16gg\	.	.	.	.	16gg\
.	8g/	.	16bb\)	.	8dd\J	8ff#\J	8g/	16bb\)
.	.	.	16dd\JJ|	.	.	.	.	16dd\JJ|
.	.	.	8qqdd/	.	.	.	.	8qqdd/
!	!	!	!	!	!	!LO:LB:g=original	!	!
8G\L	8e/L	.	(>8.cc#\L	.	4a/	4ee\	8e/L	8.cc#\L
16F#\L	16f#/L	.	.	.	.	.	16f#/L	.
16E\JJ	16g/JJ	.	32b\LL	.	.	.	16g/JJ	(>32b\LL
.	.	.	32a\JJJ)	.	.	.	.	32a\JJJ)
8F#\L	8a/L	.	24dd\LL	.	8r	8r	8a/L	24dd\LL
.	.	.	24ee\	.	.	.	.	24ee\
.	.	.	24ff#\JJ	.	.	.	.	24ff#\JJ
8C#\J	8a/J	.	24gg\LL	.	8a/	8ee\	8a/J	24gg\LL
.	.	.	24ff#\	.	.	.	.	24ff#\
.	.	.	24ee\JJ	.	.	.	.	24ee\JJ
=11	=11	=11	=11	=11	=11	=11	=11	=11
*	*	*	*	*	*Xtuplet	*Xtuplet	*	*
!LO:TX:a:t=P:problem:mixed beam	!LO:TUP:a:problem:klamra łukowa bez numeru	!	!	!	!	!	!	!
8D\L	24dd\LL	.	24ff#\LL	.	24dd\LL	24ff#\LL	24dd\LL	24ff#\LL
.	24ee\	.	24gg\	.	24ee\	24gg\	24ee\	24gg\
.	24ff#\JJ	.	24aa\JJ	.	24ff#\JJ	24aa\JJ	24ff#\JJ	24aa\JJ
8G\	24gg\LL	.	24bb\LL	.	24gg\LL	24bb\LL	24gg\LL	24bb\LL
.	24ff#\	.	24aa\	.	24ff#\	24aa\	24ff#\	24aa\
.	24ee\JJ	.	24gg\JJ	.	24ee\JJ	24gg\JJ	24ee\JJ	24gg\JJ
8A\	8dd\L	.	8ff#\L	.	8dd\L	8ff#\L	8dd\L	8ff#\L
8AA/J	8cc#t\J	.	8eeT\J	.	8a\J	8eeT\J	8cc#t\J	8eeT\J
4D\	4dd\	.	4dd\	.	16.f#/LL	16.dd\LL	4dd\	4dd\
.	.	.	.	.	32a/K	32a\K	.	.
.	.	.	.	.	16.f#/	16.f#\	.	.
.	.	.	.	.	32a/JJk	32a\JJk	.	.
16r	4r	.	8r	.	4d/	4f#/	4r	4r
16D\LL	.	.	.	.	.	.	.	.
!	!	!	!	!LO:DY:b:t=pian	!	!	!	!
16.E\	.	.	8a/	p	.	.	.	.
32F#\JJk	.	.	.	.	.	.	.	.
!LO:LB:g=original	!	!	!LO:LB:g=original	!	!	!	!	!
=12	=12	=12	=12	=12	=12	=12	=12	=12
!	!	!	!	!	!LO:TX:a:t=1.	!LO:TX:a:t=1.	!LO:TX:a:t=1.	!LO:TX:a:t=1.
8G\L	8d/L	.	16a#X/	.	1r	1r	1r	1r
.	.	.	8b/	.	.	.	.	.
8E\	8g/	.	.	.	.	.	.	.
.	.	.	8cc#\	.	.	.	.	.
8F#\	8a/	.	.	.	.	.	.	.
.	.	.	8dd\	.	.	.	.	.
8C#\J	8a/J	.	.	.	.	.	.	.
.	.	.	8ee\	.	.	.	.	.
8D/L	8a\L	.	.	.	.	.	.	.
.	.	.	8ff#\	.	.	.	.	.
8BB/	8dd\	.	.	.	.	.	.	.
.	.	.	8gg#X\	.	.	.	.	.
8AA/	8cc#\	.	.	.	.	.	.	.
.	.	.	8aa\	.	.	.	.	.
8C#/J	8ee\J	.	.	.	.	.	.	.
.	.	.	16ggn\	.	.	.	.	.
=13	=13	=13	=13	=13	=13	=13	=13	=13
24D\LL	16a/	.	16ff#\	.	8d/	16r	16r	16r
24d\	.	.	.	.	.	.	.	.
!	!	!	!	!LO:DY:b:t=for	!	!	!	!
.	8dd\	.	8dd\	f	.	8dd\	8dd\	8dd\
24c#\JJ	.	.	.	.	.	.	.	.
24B\LL	.	.	.	.	8r	.	.	.
24A\	.	.	.	.	.	.	.	.
.	8dd\	.	8dd\	.	.	8dd\	8dd\	8dd\
24G\JJ	.	.	.	.	.	.	.	.
24F#\LL	.	.	.	.	8d/	.	.	.
24B\	.	.	.	.	.	.	.	.
.	8dd\	.	8dd\	.	.	8dd\	8dd\	8dd\
24A\JJ	.	.	.	.	.	.	.	.
24G\LL	.	.	.	.	8r	.	.	.
24F#\	.	.	.	.	.	.	.	.
.	[>16dd\	.	[>16dd\	.	.	[>16dd\	[>16dd\	[>16dd\
24E\JJ	.	.	.	.	.	.	.	.
!	!	!	!	!	!LO:LB:g=original	!	!	!
!	!LO:LB:g=original	!	!	!	!	!	!LO:LB:g=original	!
8D\L	24dd\LL]	.	24dd\LL]	.	8d/	24dd\LL]	24dd\LL]	24dd\LL]
.	24bb\	.	24ddd\	.	.	24ddd\	24bb\	24ddd\
.	24aa\JJ	.	24ccc#\JJ	.	.	24ccc#\JJ	24aa\JJ	24ccc#\JJ
8E\	24gg\LL	.	24bb\LL	.	8r	24bb\LL	24gg\LL	24bb\LL
.	24ff#\	.	24aa\	.	.	24aa\	24ff#\	24aa\
.	24ee\JJ	.	24gg\JJ	.	.	24gg\JJ	24ee\JJ	24gg\JJ
8F#\	24dd\LL	.	24ff#\LL	.	8d/	24ff#\LL	24dd\LL	24ff#\LL
.	24dd\	.	24bb\	.	.	24bb\	24dd\	24bb\
.	24cc#\JJ	.	24aa\JJ	.	.	24aa\JJ	24cc#\JJ	24aa\JJ
8G\J	24b/LL	.	24gg\LL	.	8r	24gg\LL	24b/LL	24gg\LL
.	24a/	.	24ff#\	.	.	24ff#\	24a/	24ff#\
.	24g/JJ	.	24ee\JJ	.	.	24ee\JJ	24g/JJ	24ee\JJ
=14	=14	=14	=14	=14	=14	=14	=14	=14
!LO:TX:a:t=P:problem:mixed beam	!	!	!	!	!	!	!	!
8A\L	8f#/	.	8.dd\L	.	16r	8.dd\L	8f#/	8.dd\L
.	.	.	.	.	16d/LL	.	.	.
8A\	4dd\	.	.	.	16f#/	.	4dd\	.
.	.	.	16ee\Jk	.	16d/JJ	16ee\Jk	.	16ee\Jk
!	!	!	!	!	!	!LO:SIC:v:t=custos dd	!	!
8AA/	.	.	4eeT\	.	8a/L	4eeT\	.	4eeT\
8AA/J	8cc#t\	.	.	.	8a/J	.	8cc#t\	.
!	!	!	!	!	!	!LO:LB:g=original	!	!
4D\	16.dd\LL	.	16.dd\LL	.	16.dd\LL	16.dd\LL	16.dd\LL	16.dd\LL
.	32a\K	.	32a\K	.	32a\K	32a\K	32a\K	32a\K
.	16.f#\	.	16.f#\	.	16.f#\	16.f#\	16.f#\	16.f#\
.	32a\JJk	.	32a\JJk	.	32a\JJk	32a\JJk	32a\JJk	32a\JJk
!	!	!	!	!	!	!LO:TX:a:t=P:problem:mixed beam	!	!
16r	4ff# 4a 4d/	.	4ff# 4a 4d/	.	4d/	8f#/L	4d/	4d/
16D\LL	.	.	.	.	.	.	.	.
16.F#\	.	.	.	.	.	8dd\J	.	.
32A\JJk	.	.	.	.	.	.	.	.
!	!	!	!	!	!	!	!	!LO:LB:g=original
=15	=15	=15	=15	=15	=15	=15	=15	=15
!	!	!	!	!LO:DY:b:t=pian	!LO:TX:a:t=6.	!LO:TX:a:i:t=Solo.:rj	!LO:TX:a:t=7.	!LO:TX:a:t=7.
8d\L	8f#/L	.	8dd\L	p	00r	24aa\LL	00r	00r
.	.	.	.	.	.	24gg\	.	.
.	.	.	.	.	.	24ff#\JJ	.	.
!	!	!LO:DY:b:t=pian	!	!	!	!	!	!
8d\	8f#/	p	8dd\J	.	.	24gg\LL	.	.
.	.	.	.	.	.	24ff#\	.	.
.	.	.	.	.	.	24ee\JJ	.	.
8d\	8g/	.	24dd\LL	.	.	8bb\L	.	.
.	.	.	24ccn\	.	.	.	.	.
.	.	.	24b\JJ	.	.	.	.	.
8d\J	8g/J	.	24b\LL	.	.	8bb\J	.	.
.	.	.	24a\	.	.	.	.	.
.	.	.	24g\JJ	.	.	.	.	.
!	!LO:TX:a:t=P:problem:mixed beam	!	!	!	!	!	!	!
8d\L	8f#/L	.	8dd\L	.	.	24aa\LL	.	.
.	.	.	.	.	.	24gg\	.	.
.	.	.	.	.	.	24ff#\JJ	.	.
8D\J	8f#/	.	8dd\	.	.	24ff#\LL	.	.
.	.	.	.	.	.	24ee\	.	.
.	.	.	.	.	.	24dd\JJ	.	.
!LO:LB:g=original	!	!	!	!	!	!	!	!
16r	8dd\	.	8ff#\	.	.	8ddd\L	.	.
16B\LL	.	.	.	.	.	.	.	.
16A\	8dd\J	.	8ff#\J	.	.	8ddd\J	.	.
16G#X\JJ	.	.	.	.	.	.	.	.
=16	=16	=16	=16	=16	=16	=16	=16	=16
8A\L	8cc#\L	.	8ee\L	.	.	24ccc#\LL	.	.
.	.	.	.	.	.	24bb\	.	.
.	.	.	.	.	.	24aa\JJ	.	.
8A\	8cc#\	.	8ee\	.	.	24bb\LL	.	.
.	.	.	.	.	.	24aa\	.	.
.	.	.	.	.	.	24gg\JJ	.	.
8A\	8cc#\	.	8ee\	.	.	24aa\LL	.	.
.	.	.	.	.	.	24gg\	.	.
.	.	.	.	.	.	24ff#\JJ	.	.
8A\J	8cc#\J	.	8ee\J	.	.	24gg\LL	.	.
.	.	.	.	.	.	24ff#\	.	.
.	.	.	.	.	.	24ee\JJ	.	.
8d\L	8a\L	.	8ff#\L	.	.	24ff#\LL	.	.
.	.	.	.	.	.	24dd\	.	.
.	.	.	.	.	.	24ff#\JJ	.	.
8D\J	8a\	.	8ff#\	.	.	24aa\LL	.	.
.	.	.	.	.	.	24ff#\	.	.
.	.	.	.	.	.	24aa\JJ	.	.
16r	8dd\	.	8ff#\	.	.	4ddd\	.	.
16BB/LL	.	.	.	.	.	.	.	.
16AA/	8dd\J	.	8ff#\J	.	.	.	.	.
16GG#X/JJ	.	.	.	.	.	.	.	.
!	!	!	!LO:LB:g=original	!	!	!	!	!
=17	=17	=17	=17	=17	=17	=17	=17	=17
8AA/L	8cc#\L	.	8ee\L	.	.	24ccc#\LL	.	.
.	.	.	.	.	.	24bb\	.	.
.	.	.	.	.	.	24aa\JJ	.	.
8AA/	8cc#\	.	8ee\	.	.	24bb\LL	.	.
.	.	.	.	.	.	24aa\	.	.
.	.	.	.	.	.	24gg\JJ	.	.
8AA/	8cc#\	.	8ee\	.	.	24aa\LL	.	.
.	.	.	.	.	.	24gg\	.	.
.	.	.	.	.	.	24ff#\JJ	.	.
8AA/J	8cc#\J	.	8ee\J	.	.	24gg\LL	.	.
.	.	.	.	.	.	24ff#\	.	.
.	.	.	.	.	.	24ee\JJ	.	.
!	!	!	!	!	!	!LO:LB:g=original	!	!
8D\L	8r	.	8r	.	.	16ff#\LL	.	.
.	.	.	.	.	.	16dd\J	.	.
8D\	8dd\L	.	8ff#\L	.	.	[>8dd\J	.	.
8D\	8dd\	.	8ff#\	.	.	16dd\LL]	.	.
.	.	.	.	.	.	16aa\	.	.
8D\J	8dd\J	.	8ff#\J	.	.	16gg\	.	.
.	.	.	.	.	.	16ff#\JJ	.	.
=18	=18	=18	=18	=18	=18	=18	=18	=18
8E\L	8r	.	8r	.	.	16gg\LL	.	.
.	.	.	.	.	.	16dd\J	.	.
8E\	8dd\L	.	8gg\L	.	.	[>8dd\J	.	.
8E\	8dd\	.	8gg\	.	.	16dd\LL]	.	.
.	.	.	.	.	.	16bb\	.	.
8E\J	8dd\J	.	8gg\J	.	.	16aa\	.	.
.	.	.	.	.	.	16gg\JJ	.	.
!	!LO:LB:g=original	!	!	!	!	!	!	!
8F#\L	8dd\L	.	8ff#\	.	.	4.aa\	.	.
8F#\	8a\	.	4dd\	.	.	.	.	.
8G\	8b\	.	.	.	.	.	.	.
8G\J	8b\J	.	16ee\LL	.	.	16gg\LL	.	.
.	.	.	16ff#\JJ	.	.	16ff#\JJ	.	.
=19	=19	=19	=19	=19	=19	=19	=19	=19
!LO:TX:a:t=P:problem:mixed beam	!	!	!	!	!	!	!	!
8A\L	8a\L	.	8ff#\L	.	0r	16ddd\LL	0r	0r
.	.	.	.	.	.	16ccc#\J	.	.
8AA/J	[>8cc#\J	.	[>8ee\J	.	.	8ccc#\J	.	.
4r	24cc#\LL]	.	24ee\LL]	.	.	8r	.	.
.	24b\	.	24dd\	.	.	.	.	.
.	24a\JJ	.	24cc#\JJ	.	.	.	.	.
.	24b/LL	.	24dd\LL	.	.	8ee\	.	.
.	24a/	.	24cc#\	.	.	.	.	.
.	24g#X/JJ	.	24b\JJ	.	.	.	.	.
8r	8a/L	.	8cc#\L	.	.	4.ee\	.	.
8C#\L	8e/	.	8a\	.	.	.	.	.
8C#\	8e/	.	8a\	.	.	.	.	.
8C#\J	8e/J	.	8a\J	.	.	16ff#\LL	.	.
.	.	.	.	.	.	16gg\JJ	.	.
!LO:LB:g=original	!	!	!	!	!	!	!	!
=20	=20	=20	=20	=20	=20	=20	=20	=20
!	!LO:TX:a:t=P:problem:mixed beam	!	!	!	!	!	!	!
8D/L	8f#/L	.	8a\L	.	.	16ff#\LL	.	.
.	.	.	.	.	.	16ee\J	.	.
8DD/J	[>8dd\J	.	[>8ff#\J	.	.	8dd\J	.	.
4r	24dd\LL]	.	24ff#\LL]	.	.	8r	.	.
.	24cc#\	.	24ee\	.	.	.	.	.
.	24b\JJ	.	24dd\JJ	.	.	.	.	.
.	24cc#\LL	.	24ee\LL	.	.	8ff#\	.	.
.	24b\	.	24dd\	.	.	.	.	.
.	24a#X\JJ	.	24cc#\JJ	.	.	.	.	.
!	!LO:TX:a:t=P:problem:mixed beam	!	!	!	!	!	!	!
8r	8b\L	.	8dd#X\L	.	.	4.ff#\	.	.
8D#X\L	8f#/	.	8b\	.	.	.	.	.
8D#\	8f#/	.	8b\	.	.	.	.	.
8D#\J	8f#/J	.	8b\J	.	.	16gg#X\LL	.	.
.	.	.	.	.	.	16aa\JJ	.	.
=21	=21	=21	=21	=21	=21	=21	=21	=21
!LO:TX:a:t=P:problem:mixed beam	!LO:TX:a:t=P:problem:mixed beam	!	!	!	!	!	!	!
8E\L	8e/L	.	8b\L	.	2r	16gg#X\LL	1r	1r
.	.	.	.	.	.	16ff#\J	.	.
8EE/J	[>8gg#X\J	.	[>8bb\J	.	.	8ee\J	.	.
8r	24gg#\LL]	.	24bb\LL]	.	.	4r	.	.
.	24ff#\	.	24aa\	.	.	.	.	.
.	24ee\JJ	.	24gg#X\JJ	.	.	.	.	.
8G#X\	24dd\LL	.	24ff#\LL	.	.	.	.	.
.	24cc#\	.	24ee\	.	.	.	.	.
.	24b\JJ	.	24dd\JJ	.	.	.	.	.
*	*	*	*	*	*2\right	*2\right	*	*
!LO:TX:a:t=P:problem:mixed beam	!	!	!	!	!	!	!	!
8A\L	16a\LL	.	16cc#\LL	.	2ee\	2aa\	.	.
.	16b\J	.	16dd\J	.	.	.	.	.
8AA/J	8.cc#\J	.	8.ee\J	.	.	.	.	.
8r	.	.	.	.	.	.	.	.
.	16cc#\LL	.	16ee\LL	.	.	.	.	.
8A\	16b\	.	16dd\	.	.	.	.	.
.	16a\JJ	.	16cc#\JJ	.	.	.	.	.
!	!	!	!LO:LB:g=original	!	!	!	!	!
=22	=22	=22	=22	=22	=22	=22	=22	=22
8e\L	16g#X/LL	.	16b\LL	.	2ee\	2gg#X\	4r	4r
.	16a/J	.	16cc#\J	.	.	.	.	.
8E\J	8.b/J	.	8.dd\J	.	.	.	.	.
8r	.	.	.	.	.	.	16r	16r
!	!	!	!	!	!	!	!LO:TX:b:i:t=Solo.	!LO:TX:a:i:t=Solo.
.	16b/LL	.	16dd\LL	.	.	.	16g#X/LL	16b\LL
8E\	16a/	.	16cc#\	.	.	.	16a/	16cc#\
.	16g#X/JJ	.	16b\JJ	.	.	.	16b/JJ	16dd\JJ
!	!LO:LB:g=original	!	!	!	!	!	!	!
!	!LO:TX:a:t=P:problem:mixed beam	!	!LO:TX:a:t=P:problem:mixed beam	!	!	!	!	!
4AA/	8a\L	.	8a\L	.	4ee\	4aa\	16a\LL	16cc#\LL
.	.	.	.	.	.	.	16b\J	16dd\J
.	8A/J	.	8A/J	.	.	.	[>8cc#\J	[>8ee\J
4r	8r	.	8r	.	4r	4r	16cc#\LL]	16ee\LL]
.	.	.	.	.	.	.	(>32ff#\L	(>32aa\L
.	.	.	.	.	.	.	32ee\)	32gg#X\)
.	8a\	.	8a\	.	.	.	(>32dd\	(>32ff#\
.	.	.	.	.	.	.	32cc#\)	32ee\)
.	.	.	.	.	.	.	(>32b\	(>32dd\
.	.	.	.	.	.	.	32a\JJJ)	32cc#\JJJ)
!	!	!	!	!	!	!LO:LB:g=original	!LO:LB:g=original	!
=23	=23	=23	=23	=23	=23	=23	=23	=23
!	!LO:TX:a:t=P:problem:mixed beam	!	!LO:TX:a:t=P:problem:mixed beam	!	!LO:TX:a:t=2.	!	!	!
0r	8ee\L	.	8ee\L	.	0r	2r	16g#X/LL	16b\LL
.	.	.	.	.	.	.	16a/J	16cc#\J
.	8e/J	.	8e/J	.	.	.	[>8b/J	[>8dd\J
.	8r	.	8r	.	.	.	16b\LL]	16dd\LL]
.	.	.	.	.	.	.	(>32gg#X\L	(>32bb\L
.	.	.	.	.	.	.	32ff#\)	32aa\)
.	8e/	.	8e/	.	.	.	(>32ee\	(>32gg#X\
.	.	.	.	.	.	.	32dd\)	32ff#\)
.	.	.	.	.	.	.	(>32cc#\	(>32ee\
.	.	.	.	.	.	.	32b\JJJ)	32dd\JJJ)
!	!	!	!	!	!	!	!LO:TUP:a:problem:klamra łukowa bez numeru	!
.	4A/	.	4A/	.	.	[>2aa\	24a\LL	24cc#\LL
.	.	.	.	.	.	.	24b\	24b\
.	.	.	.	.	.	.	24cc#\JJ	24a\JJ
.	.	.	.	.	.	.	24b\LL	24dd\LL
.	.	.	.	.	.	.	24cc#\	24cc#\
.	.	.	.	.	.	.	24dd\JJ	24b\JJ
.	4r	.	4r	.	.	.	24cc#\LL	24ee\LL
.	.	.	.	.	.	.	24dd\	24dd\
.	.	.	.	.	.	.	24ee\JJ	24cc#\JJ
.	.	.	.	.	.	.	24dd\LL	24ff#\LL
.	.	.	.	.	.	.	24ee\	24ee\
.	.	.	.	.	.	.	24ff#\JJ	24dd\JJ
=24	=24	=24	=24	=24	=24	=24	=24	=24
!	!	!	!	!	!	!	!LO:TUP:a:problem:klamra łukowa, kropka zamiast numeru	!LO:TUP:a:problem:klamra łukowa, kropka zamiast numeru
.	8r	.	8r	.	.	8.aa\L]	24ee\LL	24cc#\LL
.	.	.	.	.	.	.	24dd\	24dd\
.	.	.	.	.	.	.	24cc#\JJ	24ee\JJ
!	!LO:TX:a:t=P:problem:mixed beam	!	!LO:TX:a:t=P:problem:mixed beam	!	!	!	!	!
.	8a\L	.	8a\L	.	.	.	4cc#\	4ee\
.	.	.	.	.	.	32gg#X\LL	.	.
.	.	.	.	.	.	32ff#\JJJ	.	.
.	8c#/	.	8c#/	.	.	8ee\L	.	.
.	8d/J	.	8d/J	.	.	8ddd\J	8b\	8dd\
.	8e/L	.	8e/L	.	.	8ccc#\	4a/	8cc#\
.	8e/	.	8e/	.	.	4aa\	.	4cc#\
.	8e/	.	8e/	.	.	.	4e/	.
.	8e/J	.	8e/J	.	.	8gg#Xt\	.	8bT\
!	!	!	!	!	!	!	!	!LO:LB:g=original
=25	=25	=25	=25	=25	=25	=25	=25	=25
!	!LO:TUP:a:problem:klamra łukowa bez numeru	!	!LO:TUP:a:problem:klamra łukowa bez numeru	!	!	!	!	!
!	!	!LO:DY:b:t=for:rj	!	!LO:DY:b:t=for	!	!	!	!
8AA/L	24cc#\LL	f	24ee\LL	f	4ee\	4aa\	4e/	4cc#\
.	24b\	.	24dd\	.	.	.	.	.
.	24a\JJ	.	24cc#\JJ	.	.	.	.	.
8AA/J	24a\LL	.	24cc#\LL	.	.	.	.	.
.	24b\	.	24b\	.	.	.	.	.
.	24cc#\JJ	.	24a\JJ	.	.	.	.	.
!LO:TX:a:t=P:problem:mixed beam	!	!	!	!	!	!	!	!
24AA/LL	8dd\L	.	8ff#\L	.	4r	4r	4r	4r
24A\	.	.	.	.	.	.	.	.
24G\JJ	.	.	.	.	.	.	.	.
24F#\LL	8dd\J	.	8ff#\J	.	.	.	.	.
24E\	.	.	.	.	.	.	.	.
24D\JJ	.	.	.	.	.	.	.	.
!	!	!	!LO:TUP:a:problem:klamra łukowa bez numeru	!	!	!	!	!
8AA/L	24cc#\LL	.	24ee\LL	.	4ee\	4ccc#\	4cc#\	4ee\
.	24b\	.	24dd\	.	.	.	.	.
.	24a\JJ	.	24cc#\JJ	.	.	.	.	.
8AA/J	24a\LL	.	24cc#\LL	.	.	.	.	.
.	24b\	.	24b\	.	.	.	.	.
.	24cc#\JJ	.	24a\JJ	.	.	.	.	.
!	!LO:TX:a:t=P:problem:mixed beam	!	!	!	!	!	!	!
24A\LL	8c#/L	.	8aa\L	.	4r	4r	8r	8r
24E\	.	.	.	.	.	.	.	.
24D\JJ	.	.	.	.	.	.	.	.
24C#/LL	8cc#\J	.	8aa\J	.	.	.	8cc#\	8aa\
24BB/	.	.	.	.	.	.	.	.
24AA/JJ	.	.	.	.	.	.	.	.
!LO:LB:g=original	!	!	!	!	!LO:LB:g=original	!	!	!
=26	=26	=26	=26	=26	=26	=26	=26	=26
!	!	!	!LO:TUP:a:problem:klamra łukowa bez numeru	!	!	!	!LO:TUP:a:problem:klamra łukowa bez numeru	!
8E\L	24b\LL	.	24gg#X\LL	.	2r	2r	24b\LL	24gg#X\LL
.	24dd\	.	24ff#\	.	.	.	24dd\	24ff#\
.	24cc#\JJ	.	24ee\JJ	.	.	.	24cc#\JJ	24ee\JJ
!	!	!	!LO:TUP:a:problem:klamra łukowa bez numeru	!	!	!	!LO:TUP:a:problem:klamra łukowa bez numeru	!
8E\	24dd\LL	.	24ff#\LL	.	.	.	24dd\LL	24ff#\LL
.	24cc#\	.	24ee\	.	.	.	24cc#\	24ee\
.	24b\JJ	.	24dd\JJ	.	.	.	24b\JJ	24dd\JJ
!	!	!	!LO:TUP:a:problem:klamra łukowa bez numeru	!	!	!	!	!
8E\	24cc#\LL	.	24ee\LL	.	.	.	24cc#\LL	24ee\LL
.	24b\	.	24dd\	.	.	.	24b\	24dd\
.	24a\JJ	.	24cc#\JJ	.	.	.	24a\JJ	24cc#\JJ
8E\J	24b\LL	.	24dd\LL	.	.	.	24b\LL	24dd\LL
.	24a\	.	24cc#\	.	.	.	24a\	24cc#\
.	24g#X\JJ	.	24b\JJ	.	.	.	24g#X\JJ	24b\JJ
!	!	!	!	!	!	!	!LO:LB:g=original	!
8AA/L	24a\LL	.	24cc#\LL	.	4.ee\	4.ccc#\	24a\LL	24cc#\LL
.	24e\	.	24a\	.	.	.	24e\	24a\
.	24a\JJ	.	24cc#\JJ	.	.	.	24a\JJ	24cc#\JJ
8AA/J	24cc#\LL	.	24ee\LL	.	.	.	24cc#\LL	24ee\LL
.	24a\	.	24cc#\	.	.	.	24a\	24cc#\
.	24cc#\JJ	.	24ee\JJ	.	.	.	24cc#\JJ	24ee\JJ
!	!LO:TX:a:t=P:problem:mixed beam	!	!	!	!	!	!	!
24A\LL	8c#/L	.	8aa\L	.	.	.	4cc#\	8aa\L
24E\	.	.	.	.	.	.	.	.
24D\JJ	.	.	.	.	.	.	.	.
24C#/LL	8cc#\J	.	8aa\J	.	8ee\	8ccc#\	.	8aa\J
24BB/	.	.	.	.	.	.	.	.
24AA/JJ	.	.	.	.	.	.	.	.
!	!LO:LB:g=original	!	!LO:LB:g=original	!	!	!	!	!
=27	=27	=27	=27	=27	=27	=27	=27	=27
8E\L	24b\LL	.	24gg#X\LL	.	4ee\	4gg#X\	24b\LL	24gg#X\LL
.	24dd\	.	24ff#\	.	.	.	24dd\	24ff#\
.	24cc#\JJ	.	24ee\JJ	.	.	.	24cc#\JJ	24ee\JJ
8E\	24dd\LL	.	24ff#\LL	.	.	.	24dd\LL	24ff#\LL
.	24cc#\	.	24ee\	.	.	.	24cc#\	24ee\
.	24b\JJ	.	24dd\JJ	.	.	.	24b\JJ	24dd\JJ
8E\	24cc#\LL	.	24ee\LL	.	8r	8r	24cc#\LL	24ee\LL
.	24b\	.	24dd\	.	.	.	24b\	24dd\
.	24a\JJ	.	24cc#\JJ	.	.	.	24a\JJ	24cc#\JJ
8E\J	24b\LL	.	24dd\LL	.	8ee\	8gg#\	24b/LL	24dd\LL
.	24a\	.	24cc#\	.	.	.	24a/	24cc#\
.	24g#X\JJ	.	24b\JJ	.	.	.	24g#X/JJ	24b\JJ
.	.	.	8qqdd/	.	.	.	.	.
8r	8a/L	.	8cc#\L	.	8ee\L	8aa\L	8a/L	8cc#\L
16.E\LL	8g#X/J	.	8b\J	.	8ee\J	8gg#X\J	8g#X/J	8b\J
32D\JJk	.	.	.	.	.	.	.	.
8E\L	4r	.	8r	.	4r	4r	4r	4r
8C#\J	.	.	8e/	.	.	.	.	.
=28	=28	=28	=28	=28	=28	=28	=28	=28
!	!	!	!	!	!LO:TX:a:t=1.	!LO:TX:a:t=1.	!LO:TX:a:t=1.	!LO:TX:a:t=1.
8D\L	8A/L	.	16e#X/	.	1r	1r	1r	1r
.	.	.	8f#/	.	.	.	.	.
8B\	8d/	.	.	.	.	.	.	.
.	.	.	8g#X/	.	.	.	.	.
8c#\	8e/	.	.	.	.	.	.	.
.	.	.	8a/	.	.	.	.	.
8G#X\J	8e/J	.	.	.	.	.	.	.
.	.	.	8b/	.	.	.	.	.
8A\L	8e/L	.	.	.	.	.	.	.
.	.	.	8cc#\	.	.	.	.	.
8F#\	8a/	.	.	.	.	.	.	.
.	.	.	8dd#X\	.	.	.	.	.
8E\	8g#X/	.	.	.	.	.	.	.
.	.	.	8ee\	.	.	.	.	.
8G#X\J	8b/J	.	.	.	.	.	.	.
.	.	.	16ddn\	.	.	.	.	.
=29	=29	=29	=29	=29	=29	=29	=29	=29
!LO:TX:a:t=P:problem:mixed beam	!	!	!	!	!	!	!	!
24AA/LL	16a/	.	16cc#\	.	8r	8r	16r	16r
24A\	.	.	.	.	.	.	.	.
.	8a/	.	8a/	.	.	.	8a/	8a/
24G#X\JJ	.	.	.	.	.	.	.	.
24E\LL	.	.	.	.	16.a/LL	16.a/LL	.	.
24E\	.	.	.	.	.	.	.	.
.	8a/	.	8a/	.	.	.	8a/	8a/
24D\JJ	.	.	.	.	.	.	.	.
.	.	.	.	.	32a/JJk	32a/JJk	.	.
24C#\LL	.	.	.	.	8a/L	8a/L	.	.
24F#\	.	.	.	.	.	.	.	.
.	8a/	.	8a/	.	.	.	8a/	8a/
24E\JJ	.	.	.	.	.	.	.	.
!LO:LB:g=original	!	!	!	!	!	!	!	!
24D/LL	.	.	.	.	16.a/L	16.a/L	.	.
24C#/	.	.	.	.	.	.	.	.
.	[>16a/	.	[>16a/	.	.	.	[>16a/	[<16a/
24BB/JJ	.	.	.	.	.	.	.	.
.	.	.	.	.	32a/JJk	32a/JJk	.	.
!	!	!	!	!	!	!	!	!LO:LB:g=original
!	!	!	!	!	!	!	!	!LO:TX:a:t=P:problem:zakończenie ligatury na górze
8AA/L	24a\LL]	.	24a\LL]	.	4a/	4a/	24a\LL]	24a\LL]
.	24ff#\	.	24aa\	.	.	.	24ff#\	24aa\
.	24ee\JJ	.	24gg#X\JJ	.	.	.	24ee\JJ	24gg#X\JJ
8BB/	24dd\LL	.	24ff#\LL	.	.	.	24dd\LL	24ff#\LL
.	24cc#\	.	24ee\	.	.	.	24cc#\	24ee\
.	24b\JJ	.	24dd\JJ	.	.	.	24b\JJ	24dd\JJ
8C#/	24a/LL	.	24cc#\LL	.	4r	4r	24cc#\LL	24cc#\LL
.	24a/	.	24ff#\	.	.	.	24aa\	24ff#\
.	24g#X/JJ	.	24ee\JJ	.	.	.	24gg#X\JJ	24ee\JJ
8D/J	24f#/LL	.	24dd\LL	.	.	.	24ff#\LL	24dd\LL
.	24e/	.	24cc#\	.	.	.	24ee\	24cc#\
!	!	!	!	!	!	!	!LO:SIC:v:t=custos cc	!
.	24d/JJ	.	24b\JJ	.	.	.	24dd\JJ	24b\JJ
!	!	!	!	!	!	!LO:LB:g=original	!LO:LB:g=original	!
=30	=30	=30	=30	=30	=30	=30	=30	=30
!LO:TX:a:t=P:problem:mixed beam	!	!	!	!	!	!	!	!
8E\L	8c#/	.	8.a/L	.	8r	8r	8cc#\	8.a/L
8E\	4a/	.	.	.	8ee\L	8aa\L	4a/	.
.	.	.	16b/Jk	.	.	.	.	16b/Jk
8EE/	.	.	4bT/	.	8ee\	8aa\	.	4bT/
8EE/J	8g#Xt/	.	.	.	8ee\J	8gg#X\J	8g#X/	.
!LO:TX:a:t=P:problem:mixed beam	!	!	!	!	!	!	!	!
8AA/L	16.a/LL	.	16.a/LL	.	4ee\	4aa\	4a/	4a/
.	32e/K	.	32e/K	.	.	.	.	.
16A\L	16.c#/	.	16.c#/	.	.	.	.	.
16B\JJ	.	.	.	.	.	.	.	.
.	32e/JJk	.	32e/JJk	.	.	.	.	.
16A\LL	8a 8e 8A/	.	8a 8e 8A/	.	4r	8r	4r	4r
16Gn\	.	.	.	.	.	.	.	.
!	!	!	!	!	!	!LO:TX:b:i:t=Solo.	!	!
16F#\	8r	.	8r	.	.	8dd\	.	.
16E\JJ	.	.	.	.	.	.	.	.
!	!LO:LB:g=original	!	!LO:LB:g=original	!	!	!	!	!
=31	=31	=31	=31	=31	=31	=31	=31	=31
!	!	!	!	!	!LO:TX:a:t=8.	!	!LO:TX:a:t=7.	!LO:TX:a:t=7.
!	!	!LO:DY:b:t=pian	!	!LO:DY:b:t=p&colon;:rj	!	!	!	!
8D\L	8f#/L	p	8dd\L	p	00r	24aa\LL	00r	00r
.	.	.	.	.	.	24ggn\	.	.
.	.	.	.	.	.	24ff#\JJ	.	.
8d\	8f#/	.	8dd\J	.	.	24ff#\LL	.	.
.	.	.	.	.	.	24ee\	.	.
.	.	.	.	.	.	24dd\JJ	.	.
8d\	8g/	.	24dd\LL	.	.	8bb\L	.	.
.	.	.	24ccn\	.	.	.	.	.
.	.	.	24b\JJ	.	.	.	.	.
8d\J	8g/J	.	24b\LL	.	.	8bb\J	.	.
.	.	.	24a\	.	.	.	.	.
.	.	.	24g\JJ	.	.	.	.	.
!	!LO:TX:a:t=P:problem:mixed beam	!	!	!	!	!	!	!
8d\L	8f#/L	.	8dd\L	.	.	24aa\LL	.	.
.	.	.	.	.	.	24gg\	.	.
.	.	.	.	.	.	24ff#\JJ	.	.
8D\J	8f#/	.	8dd\	.	.	24ff#\LL	.	.
.	.	.	.	.	.	24ee\	.	.
.	.	.	.	.	.	24dd\JJ	.	.
16r	8dd\	.	8ff#\	.	.	8ddd\L	.	.
16B\LL	.	.	.	.	.	.	.	.
16A\	8dd\J	.	8ff#\J	.	.	8ddd\J	.	.
16G#X\JJ	.	.	.	.	.	.	.	.
=32	=32	=32	=32	=32	=32	=32	=32	=32
8A\L	8cc#\L	.	8ee\L	.	.	24ccc#\LL	.	.
.	.	.	.	.	.	24bb\	.	.
.	.	.	.	.	.	24aa\JJ	.	.
8A\	8cc#\	.	8ee\	.	.	24bb\LL	.	.
.	.	.	.	.	.	24aa\	.	.
.	.	.	.	.	.	24gg\JJ	.	.
8A\	8cc#\	.	8ee\	.	.	24aa\LL	.	.
.	.	.	.	.	.	24gg\	.	.
.	.	.	.	.	.	24ff#\JJ	.	.
8A\J	8cc#\J	.	8ee\J	.	.	24gg\LL	.	.
.	.	.	.	.	.	24ff#\	.	.
.	.	.	.	.	.	24ee\JJ	.	.
8d\L	8a\L	.	8ff#\L	.	.	24ff#\LL	.	.
.	.	.	.	.	.	24dd\	.	.
.	.	.	.	.	.	24ff#\JJ	.	.
8D\J	8a\	.	8ff#\	.	.	24aa\LL	.	.
.	.	.	.	.	.	24ff#\	.	.
.	.	.	.	.	.	24aa\JJ	.	.
16r	8dd\	.	8ff#\	.	.	8ddd\L	.	.
16BB/LL	.	.	.	.	.	.	.	.
16AA/	8dd\J	.	8ff#\J	.	.	8ddd\J	.	.
16GG/JJ	.	.	.	.	.	.	.	.
!LO:LB:g=original	!	!	!	!	!	!	!	!
=33	=33	=33	=33	=33	=33	=33	=33	=33
8AA/L	8cc#\L	.	8ee\L	.	.	24ccc#\LL	.	.
.	.	.	.	.	.	24bb\	.	.
.	.	.	.	.	.	24aa\JJ	.	.
8AA/	8cc#\	.	8ee\	.	.	24bb\LL	.	.
.	.	.	.	.	.	24aa\	.	.
.	.	.	.	.	.	24gg\JJ	.	.
8AA/	8cc#\	.	8ee\	.	.	24aa\LL	.	.
.	.	.	.	.	.	24gg\	.	.
.	.	.	.	.	.	24ff#\JJ	.	.
8AA/J	8cc#\J	.	8ee\J	.	.	24gg\LL	.	.
.	.	.	.	.	.	24ff#\	.	.
.	.	.	.	.	.	24ee\JJ	.	.
!	!	!	!	!	!	!LO:LB:g=original	!	!
8D\L	8r	.	8r	.	.	16ff#\LL	.	.
.	.	.	.	.	.	16dd\J	.	.
8D\	8dd\L	.	8ff#\L	.	.	8.dd\J	.	.
8D\	8dd\	.	8ff#\	.	.	.	.	.
.	.	.	.	.	.	16aa\LL	.	.
8D\J	8dd\J	.	8ff#\J	.	.	16gg\	.	.
.	.	.	.	.	.	16ff#\JJ	.	.
=34	=34	=34	=34	=34	=34	=34	=34	=34
8E\L	8r	.	8r	.	.	16gg\LL	.	.
.	.	.	.	.	.	16dd\J	.	.
8E\	8dd\L	.	8gg\L	.	.	8.dd\J	.	.
8E\	8dd\	.	8gg\	.	.	.	.	.
.	.	.	.	.	.	16bb\LL	.	.
8E\J	8dd\J	.	8gg\J	.	.	16aa\	.	.
.	.	.	.	.	.	16gg\JJ	.	.
8F#\L	8dd\L	.	8ff#\	.	.	4.aa\	.	.
8F#\	8a\	.	4dd\	.	.	.	.	.
8G\	8b\	.	.	.	.	.	.	.
8G\J	8b\J	.	16ee\LL	.	.	16gg\LL	.	.
.	.	.	16ff#\JJ	.	.	16ff#\JJ	.	.
=35	=35	=35	=35	=35	=35	=35	=35	=35
!LO:TX:a:t=P:problem:mixed beam	!	!	!	!	!	!	!	!
8A\L	8a/L	.	8ff#\L	.	00r	16ddd\LL	0r	0r
.	.	.	.	.	.	16ccc#\J	.	.
8AA/	8a/	.	8ee\	.	.	8ccc#\J	.	.
8C#/	8e/	.	8ee\	.	.	[>4aa\	.	.
8C#/J	8e/J	.	8ee\J	.	.	.	.	.
8BB/L	8f#/L	.	8dd#X\L	.	.	16aa\LL]	.	.
.	.	.	.	.	.	16bb\	.	.
8BB/	8f#/	.	8dd#\	.	.	16cccX\	.	.
.	.	.	.	.	.	16bb\JJ	.	.
8BB/	8f#/	.	8dd#\	.	.	16ccc\LL	.	.
.	.	.	.	.	.	16aa\	.	.
8BB/J	8f#/J	.	8dd#\J	.	.	16gg\	.	.
.	.	.	.	.	.	16ff#\JJ	.	.
=36	=36	=36	=36	=36	=36	=36	=36	=36
!LO:TX:a:t=P:problem:mixed beam	!	!	!	!	!	!	!	!
8E\L	8e/L	.	8b\L	.	.	16gg\LL	.	.
.	.	.	.	.	.	16ff#\J	.	.
8EE/	8g/	.	8b\	.	.	8ee\J	.	.
8BB/	8d/	.	8ddn\	.	.	[>4gg\	.	.
8BB/J	8d/J	.	8dd\J	.	.	.	.	.
8AA/L	8e/L	.	8cc#\L	.	.	16gg\LL]	.	.
.	.	.	.	.	.	16aa\	.	.
8AA/	8e/	.	8cc#\J	.	.	16bb\	.	.
.	.	.	.	.	.	16aa\JJ	.	.
8AA/	8e/	.	16cc#\LL|	.	.	16bb\LL	.	.
.	.	.	(>16ee\	.	.	16gg\	.	.
8AA/J	8a/J	.	16ff#\	.	.	16ff#\	.	.
.	.	.	16gg\JJ)	.	.	16ee\JJ	.	.
!	!LO:LB:g=original	!	!LO:LB:g=original	!	!	!	!	!
!	!	!	!	!	!	!LO:LB:g=original	!	!
=37	=37	=37	=37	=37	=37	=37	=37	=37
24D\LL	8a/	.	24ff#\LL	.	.	16ff#\LL	1r	1r
24E\	.	.	24gg\	.	.	.	.	.
.	.	.	.	.	.	16ee\J	.	.
24F#\JJ	.	.	24aa\JJ	.	.	.	.	.
24G\LL	8r	.	24bb\LL	.	.	8dd\J	.	.
24F#\	.	.	24aa\	.	.	.	.	.
24E\JJ	.	.	24gg\JJ	.	.	.	.	.
!LO:LB:g=original	!	!	!	!LO:DY:b:t=for	!	!	!	!
8D\L	8r	.	8ff#\L	f	.	4r	.	.
!	!	!LO:DY:b:t=for	!	!	!	!	!	!
8A\J	8cc#\	f	8ee\J	.	.	.	.	.
8d\L	16dd\LL	.	16ff#\LL	.	.	2r	.	.
.	16ee\J	.	16gg\J	.	.	.	.	.
8D\J	8.ff#\J	.	8.aa\J	.	.	.	.	.
8r	.	.	.	.	.	.	.	.
.	16ff#\LL	.	16aa\LL	.	.	.	.	.
8D\	16ee\	.	16gg\	.	.	.	.	.
.	16dd\JJ	.	16ff#\JJ	.	.	.	.	.
=38	=38	=38	=38	=38	=38	=38	=38	=38
!LO:TX:a:t=P:problem:mixed beam	!	!	!	!	!	!	!	!
8A\L	16cc#\LL	.	16ee\LL	.	.	2r	4r	4r
.	16dd\J	.	16ff#\J	.	.	.	.	.
8AA/J	8.ee\J	.	8.gg\J	.	.	.	.	.
8r	.	.	.	.	.	.	16r	16r
!	!	!	!	!	!	!	!LO:TX:b:i:t=Solo	!LO:TX:a:i:t=Solo.
.	16ee\LL	.	16gg\LL	.	.	.	16e/LL	16cc#\LL
8AA/	16dd\	.	16ff#\	.	.	.	16f#/	16dd\
.	16cc#\JJ	.	16ee\JJ	.	.	.	16g/JJ	16ee\JJ
!	!LO:TX:a:t=P:problem:mixed beam	!	!LO:TX:a:t=P:problem:mixed beam	!	!	!	!	!
!	!	!LO:DY:b:t=p&colon;:rj	!	!LO:DY:b:t=pian	!	!	!	!
4D\	8dd\L	p	8dd\L	p	.	[>2aa\	16f#/LL	16dd\LL
.	.	.	.	.	.	.	16g/J	16ee\J
.	8d/J	.	8d/J	.	.	.	8.a/J	8.ff#\J
4r	8r	.	8r	.	.	.	.	.
.	.	.	.	.	.	.	16a/LL	16ff#\LL
.	8d/	.	8d/	.	.	.	16g/	16ee\
.	.	.	.	.	.	.	16f#/JJ	16dd\JJ
=39	=39	=39	=39	=39	=39	=39	=39	=39
!	!LO:TX:a:t=P:problem:mixed beam	!	!	!	!	!	!	!
4r	8a\L	.	8a/L	.	4r	4aa\_>	16e/LL	16cc#\LL
.	.	.	.	.	.	.	16f#/J	16dd\J
.	8A/J	.	8A/J	.	.	.	[<8g/J	[>8ee\J
8r	4r	.	4r	.	16r	16aa\LL]	16g/LL]	16ee\LL]
.	.	.	.	.	16a\LL	16ee\	16g/	16ee\
8A\	.	.	.	.	16dd\	16ff#\	16f#/	16dd\
.	.	.	.	.	16ee\JJ	16gg\JJ	16e/JJ	16cc#\JJ
.	.	.	.	.	.	.	8qqe/	.
!	!	!	!	!	!LO:LB:g=original	!	!	!
8d\L	2r	.	2r	.	16dd\LL	16ff#\LL	4f#/	4dd\
.	.	.	.	.	16ee\J	16gg\J	.	.
8D\J	.	.	.	.	[>8ff#\J	[>8aa\J	.	.
8r	.	.	.	.	16ff#\LL]	16aa\LL]	4r	4r
.	.	.	.	.	16ff#\	16aa\	.	.
8D\	.	.	.	.	16ee\	16gg\	.	.
.	.	.	.	.	16dd\JJ	16ff#\JJ	.	.
=40	=40	=40	=40	=40	=40	=40	=40	=40
!LO:TX:a:t=P:problem:mixed beam	!LO:TX:a:t=2.	!	!LO:TX:a:t=2.	!	!	!	!LO:TX:a:t=2.	!LO:TX:a:t=2.
8A\L	0r	.	1r	.	16a\LL	16ee\LL	0r	0r
.	.	.	.	.	16dd\J	16ff#\J	.	.
8AA/J	.	.	.	.	[>8ee\J	[>8gg\J	.	.
8r	.	.	.	.	16ee\LL]	16gg\LL]	.	.
.	.	.	.	.	16ee\	16gg\	.	.
8AA/	.	.	.	.	16dd\	16ff#\	.	.
.	.	.	.	.	16a\JJ	16ee\JJ	.	.
4D\	.	.	.	.	16a\LL	24ff#\LL	.	.
.	.	.	.	.	.	24ee\	.	.
.	.	.	.	.	16ee\	.	.	.
.	.	.	.	.	.	24gg\JJ	.	.
.	.	.	.	.	16ee\	24gg\LL	.	.
.	.	.	.	.	.	24ff#\	.	.
.	.	.	.	.	16ff#\JJ	.	.	.
.	.	.	.	.	.	24aa\JJ	.	.
4r	.	.	.	.	16ff#\LL	24aa\LL	.	.
.	.	.	.	.	.	24gg\	.	.
.	.	.	.	.	16gg\	.	.	.
.	.	.	.	.	.	24bb\JJ	.	.
.	.	.	.	.	16gg\	24bb\LL	.	.
.	.	.	.	.	.	24aa\	.	.
.	.	.	.	.	16ee\JJ	.	.	.
.	.	.	.	.	.	24ccc#\JJ	.	.
=41	=41	=41	=41	=41	=41	=41	=41	=41
8D\L	.	.	1r	.	8.ff#\L	8.ddd\L	.	.
8E\	.	.	.	.	.	.	.	.
.	.	.	.	.	32aa\LL	32ccc#\LL	.	.
.	.	.	.	.	32gg\JJJ	32bb\JJJ	.	.
8F#\	.	.	.	.	8ff#\L	8aa\L	.	.
!	!	!	!	!	!	!LO:SIC:v:t=custos ff	!	!
8G\J	.	.	.	.	8ee\J	8gg\J	.	.
!LO:TX:a:t=P:problem:mixed beam	!	!	!	!	!	!	!	!
!	!	!	!	!	!	!LO:LB:g=original	!	!
8A\L	.	.	.	.	24dd\LL	24ff#\LL	.	.
.	.	.	.	.	24ee\	24gg\	.	.
.	.	.	.	.	24ff#\JJ	24aa\JJ	.	.
8G\	.	.	.	.	24gg\LL	24bb\LL	.	.
.	.	.	.	.	24ff#\	24aa\	.	.
.	.	.	.	.	24ee\JJ	24gg\JJ	.	.
8A\	.	.	.	.	8dd\L	8ff#\L	.	.
8AA/J	.	.	.	.	8a\J	8eeT\J	.	.
!LO:LB:g=original	!	!	!	!	!	!	!	!LO:LB:g=original
=42	=42	=42	=42	=42	=42	=42	=42	=42
!	!LO:TUP:a:problem:klamra łukowa bez numeru	!	!	!	!	!	!	!
!	!	!LO:DY:b:t=for	!	!LO:DY:b:t=for	!	!	!	!
8D\L	24ff#\LL	f	24aa\LL	f	4f#/	4dd\	4ff#\	4aa\
.	24ee\	.	24gg\	.	.	.	.	.
.	24dd\JJ	.	24ff#\JJ	.	.	.	.	.
8D\J	24dd\LL	.	24ff#\LL	.	.	.	.	.
.	24ee\	.	24ee\	.	.	.	.	.
.	24ff#\JJ	.	24dd\JJ	.	.	.	.	.
24D\LL	8gg\L	.	8bb\L	.	4r	4r	8gg\L	8bb\L
24d\	.	.	.	.	.	.	.	.
24c#\JJ	.	.	.	.	.	.	.	.
24B\LL	8gg\J	.	8bb\J	.	.	.	8gg\J	8bb\J
24A\	.	.	.	.	.	.	.	.
24G\JJ	.	.	.	.	.	.	.	.
!	!LO:TUP:a:problem:klamra łukowa bez numeru	!	!	!	!	!	!	!
!	!	!	!	!	!	!	!LO:LB:g=original	!
!	!	!	!	!	!LO:LB:g=original	!	!	!
8D\L	24ff#\LL	.	24aa\LL	.	8r	8r	4ff#\	4aa\
.	24ee\	.	24gg\	.	.	.	.	.
.	24dd\JJ	.	24ff#\JJ	.	.	.	.	.
.	.	.	8qqgg/	.	.	.	.	.
8D\J	24dd\LL	.	24ff#\LL	.	16d/LL	16d/LL	.	.
.	24ee\	.	24ee\	.	.	.	.	.
.	.	.	.	.	16d/JJ	16d/JJ	.	.
.	24ff#\JJ	.	24dd\JJ	.	.	.	.	.
24d\LL	8aa\L	.	8cccn\L	.	8d/L	8d/L	8ff#\L	8cccn\L
24A\	.	.	.	.	.	.	.	.
24G\JJ	.	.	.	.	.	.	.	.
24F#\LL	8aa\J	.	8ccc\J	.	8d/J	8d/J	8ff#\J	8ccc\J
24E\	.	.	.	.	.	.	.	.
24D\JJ	.	.	.	.	.	.	.	.
!	!LO:LB:g=original	!	!LO:LB:g=original	!	!	!	!	!
=43	=43	=43	=43	=43	=43	=43	=43	=43
!	!	!	!LO:TUP:a:problem:klamra łukowa bez numeru	!	!	!	!	!
8G\L	8b\L	.	24bb\LL	.	8d/	8d/	8dd\L	8bb\L
.	.	.	24aa\	.	.	.	.	.
.	.	.	24gg\JJ	.	.	.	.	.
!	!LO:TUP:a:problem:klamra łukowa bez numeru	!	!LO:TUP:a:problem:klamra łukowa bez numeru	!	!	!	!	!
8G\	24bb\L	.	24gg\LL	.	8r	8r	8bb\	8gg\
.	24aa\	.	24ff#\	.	.	.	.	.
.	24gg\JJ	.	24ee\JJ	.	.	.	.	.
!	!LO:TUP:a:problem:klamra łukowa bez numeru	!	!LO:TUP:a:problem:klamra łukowa bez numeru	!	!	!	!	!
8G\	24gg\LL	.	24ee\LL	.	4r	4r	8gg\	8ee\
.	24ff#\	.	24dd\	.	.	.	.	.
.	24ee\JJ	.	24cc#X\JJ	.	.	.	.	.
!	!	!	!LO:TUP:a:problem:klamra łukowa bez numeru	!	!	!	!	!
8G\J	24ee\LL	.	24cc#\LL	.	.	.	8ee\J	8cc#X\J
.	24dd\	.	24b\	.	.	.	.	.
.	24cc#\JJ	.	24a\JJ	.	.	.	.	.
!	!	!	!LO:TUP:a:problem:klamra łukowa bez numeru	!	!	!	!	!
8F#\L	24cc#\LL	.	24aa\LL	.	2r	2rg	8cc#\L	8aa\L
.	24b\	.	24gg\	.	.	.	.	.
.	24a\JJ	.	24ff#\JJ	.	.	.	.	.
8F#\	24aa\LL	.	24ff#\LL	.	.	.	8aa\	8ff#\
.	24gg\	.	24ee\	.	.	.	.	.
.	24ff#\JJ	.	24dd\JJ	.	.	.	.	.
8F#\	24ff#\LL	.	24dd\LL	.	.	.	8ff#\	8dd\
.	24ee\	.	24cc#\	.	.	.	.	.
.	24dd\JJ	.	24b\JJ	.	.	.	.	.
8F#\J	24dd\LL	.	24b/LL	.	.	.	8dd\J	8b\J
.	24cc#\	.	24a/	.	.	.	.	.
.	24b\JJ	.	24g/JJ	.	.	.	.	.
=44	=44	=44	=44	=44	=44	=44	=44	=44
8E\L	24b/LL	.	24gg\LL	.	2r	2r	8b\L	8gg\L
.	24a/	.	24ff#\	.	.	.	.	.
.	24g/JJ	.	24ee\JJ	.	.	.	.	.
8E\	24gg\LL	.	24ee\LL	.	.	.	8gg\	8ee\
.	24ff#\	.	24dd\	.	.	.	.	.
.	24ee\JJ	.	24cc#\JJ	.	.	.	.	.
8E\	24ee\LL	.	24cc#\LL	.	.	.	8ee\	8cc#\
.	24dd\	.	24b\	.	.	.	.	.
.	24cc#\JJ	.	24a\JJ	.	.	.	.	.
8E\J	24cc#\LL	.	24a/LL	.	.	.	8cc#\J	8a\J
.	24b\	.	24g/	.	.	.	.	.
.	24a\JJ	.	24f#/JJ	.	.	.	.	.
!LO:TX:a:t=P:problem:mixed beam	!	!	!	!	!	!	!	!
.	.	.	.	.	.	.	.	8qqg/
8D\L	8a/L	.	24f#/LL	.	4a/	4ff#\	8a/L	8f#/L
.	.	.	24d/	.	.	.	.	.
.	.	.	24f#/JJ	.	.	.	.	.
8DD/J	8f#/J	.	24a/LL	.	.	.	8f#/J	8a/J
.	.	.	24f#/	.	.	.	.	.
.	.	.	24a/JJ	.	.	.	.	.
16r	8r	.	[>4dd\	.	4r	4r	8r	[>4dd\
16B\LL	.	.	.	.	.	.	.	.
16A\	[<8f#/	.	.	.	.	.	[<8f#/	.
16G#X\JJ	.	.	.	.	.	.	.	.
=45	=45	=45	=45	=45	=45	=45	=45	=45
!LO:TX:a:t=P:problem:mixed beam	!	!	!	!	!	!	!	!
8A\L	16f#/LL]	.	16dd\LL]	.	2r	2r	16f#/LL]	16dd\LL]
.	(<16f#/	.	(>16dd\	.	.	.	(<16f#/	(>16dd\
8AA/	16e/	.	16cc#\	.	.	.	16e/	16cc#\
.	16d/JJ)	.	16b\JJ)	.	.	.	16d/JJ)	16b\JJ)
8AA/	16e/LL	.	16cc#\LL	.	.	.	16e/LL	16cc#\LL
.	16f#/J	.	16dd\J	.	.	.	16f#/J	16dd\J
8AA/J	[<8g/J	.	[>8ee\J	.	.	.	[<8g/J	[>8ee\J
!LO:LB:g=original	!LO:LB:g=original	!	!LO:LB:g=original	!	!	!	!	!
8AA/L	16g/LL]	.	16ee\LL]	.	4r	4r	16g/LL]	16ee\LL]
.	(<16g/	.	(>16ee\	.	.	.	(<16g/	(>16ee\
8AA/	16f#/	.	16dd\	.	.	.	16f#/	16dd\
.	16e/JJ)	.	16cc#\JJ)	.	.	.	16e/JJ)	16cc#\JJ)
!	!LO:TX:a:t=P:problem:mixed beam	!	!	!	!	!	!LO:TX:a:t=P:problem:mixed beam	!
8AA/	8f#/L	.	16dd\LL	.	[>4dd\	[>4ff#\	8f#/L	16dd\LL
.	.	.	16ee\J	.	.	.	.	16ee\J
8AA/J	[>8dd\J	.	[>8ff#\J	.	.	.	[>8dd\J	[>8ff#\J
!	!	!	!	!	!	!	!LO:LB:g=original	!LO:LB:g=original
=46	=46	=46	=46	=46	=46	=46	=46	=46
!	!	!	!	!	!LO:TX:a:t=P:problem:mixed beam	!	!	!
8AA/L	16dd\LL]	.	16ff#\LL]	.	8dd\L]	8ff#\L]	16dd\LL]	16ff#\LL]
.	(>16dd\	.	(>16ff#\	.	.	.	(>16dd\	(>16ff#\
8AA/	16cc#\	.	16ee\	.	16a/L	16ee\L	16cc#\	16ee\
.	16b\JJ)	.	16dd\JJ)	.	16f#/JJ	16dd\JJ	16b\JJ)	16dd\JJ)
8AA/	16cc#\LL	.	16ee\LL	.	16a\LL	16ee\LL	16cc#\LL	16ee\LL
.	16dd\J	.	16ff#\J	.	16dd\J	16ff#\J	16dd\J	16ff#\J
8AA/J	[>8ee\J	.	[>8gg\J	.	[>8ee\J	[>8gg\J	[>8ee\J	[>8gg\J
8D\L	16ee\LL]	.	16gg\LL]	.	8ee\L]	8gg\L]	16ee\LL]	16gg\LL]
.	(>16ee\	.	(>16gg\	.	.	.	(>16ee\	(>16gg\
8D\	16dd\	.	16ff#\	.	16dd\L	16ff#\L	16dd\	16ff#\
.	16cc#\JJ)	.	16ee\JJ)	.	16a\JJ	16ee\JJ	16cc#\JJ)	16ee\JJ)
!	!LO:TX:a:t=P:problem:mixed beam	!	!	!	!	!	!LO:TX:a:t=P:problem:mixed beam	!
8D\	(>16dd\LL	.	16ff#\LL	.	16dd\LL	16ff#\LL	(>16dd\LL	16ff#\LL
.	16ee\	.	16gg\J	.	16ee\J	16gg\J	16ee\	16gg\J
8D\J	16ff#\)	.	[>8aa\J	.	8ff#\J	8aa\J	16ff#\)	[>8aa\J
.	16a/JJ|	.	.	.	.	.	16a/JJ|<	.
!	!	!	!	!	!LO:LB:g=original	!LO:LB:g=original	!	!
=47	=47	=47	=47	=47	=47	=47	=47	=47
.	8qqa/	.	.	.	.	.	8qqa/	.
4GG/	4.b/	.	16aa\LL]	.	4ff#\	4aa\	4.b/	16aa\LL]
.	.	.	(>16aa\	.	.	.	.	(>16aa\
.	.	.	16gg\	.	.	.	.	16gg\
.	.	.	16ff#\JJ)	.	.	.	.	16ff#\JJ)
4G\	.	.	(>16ee\LL	.	8ee\L	8gg\L	.	(>16ee\LL
.	.	.	16gg\	.	.	.	.	16gg\
.	8g/	.	16bb\)	.	8dd\J	8ff#\J	8g/	16bb\)
.	.	.	16dd\JJ|	.	.	.	.	16dd\JJ|
.	.	.	8qqdd/	.	.	.	.	8qqdd/
8G\L	8e/L	.	8.cc#\L	.	4a/	4ee\	8e/L	8.cc#\L
16F#\L	16f#/L	.	.	.	.	.	16f#/L	.
16E\JJ	16g/JJ	.	(>32b\LL	.	.	.	16g/JJ	(>32b\LL
.	.	.	32a\JJJ)	.	.	.	.	32a\JJJ)
8F#\L	8a/L	.	24dd\LL	.	8r	8r	8a/L	24dd\LL
.	.	.	24ee\	.	.	.	.	24ee\
.	.	.	24ff#\JJ	.	.	.	.	24ff#\JJ
8C#\J	8a/J	.	24gg\LL	.	8a/	8ee\	8a/J	24gg\LL
.	.	.	24ff#\	.	.	.	.	24ff#\
.	.	.	24ee\JJ	.	.	.	.	24ee\JJ
=48	=48	=48	=48	=48	=48	=48	=48	=48
!LO:TX:a:t=P:problem:mixed beam	!LO:TUP:a:problem:klamra łukowa bez numeru	!	!	!	!	!	!	!
8D\L	24dd\LL	.	24ff#\LL	.	24dd\LL	24ff#\LL	24dd\LL	24ff#\LL
.	24ee\	.	24gg\	.	24ee\	24gg\	24ee\	24gg\
.	24ff#\JJ	.	24aa\JJ	.	24ff#\JJ	24aa\JJ	24ff#\JJ	24aa\JJ
8G\	24gg\LL	.	24bb\LL	.	24gg\LL	24bb\LL	24gg\LL	24bb\LL
.	24ff#\	.	24aa\	.	24ff#\	24aa\	24ff#\	24aa\
.	24ee\JJ	.	24gg\JJ	.	24ee\JJ	24gg\JJ	24ee\JJ	24gg\JJ
8A\	8dd\L	.	8ff#\L	.	8dd\L	8ff#\L	8dd\L	8ff#\L
8AA/J	8cc#t\J	.	8eeT\J	.	8a\J	8eeT\J	8cc#t\J	8eeT\J
!	!	!	!	!	!	!	!	!LO:LB:g=original
4D\	4dd\	.	4dd\	.	16.f#/LL	16.dd\LL	4dd\	4dd\
.	.	.	.	.	32a/K	32a\K	.	.
.	.	.	.	.	16.f#/	16.f#\	.	.
.	.	.	.	.	32a/JJk	32a\JJk	.	.
16r	4r	.	8r	.	4d/	4f#/	4r	4r
16D\LL	.	.	.	.	.	.	.	.
!	!	!	!	!LO:DY:b:t=pian	!	!	!	!
16E\	.	.	8a/	p	.	.	.	.
16F#\JJ	.	.	.	.	.	.	.	.
!	!LO:LB:g=original	!	!LO:LB:g=original	!	!	!	!	!
!	!	!	!	!	!	!LO:TX:a:t=vi	!	!
=49	=49	=49	=49	=49	=49	=49	=49	=49
!	!	!	!	!	!	!LO:TX:a:t=de.	!	!
!	!	!	!	!	!LO:TX:a:t=1.	!LO:TX:a:t=1.	!LO:TX:a:t=1.	!LO:TX:a:t=1.
8G\L	8d/L	.	16a#X/	.	1r	1r	1r	1r
.	.	.	8b/	.	.	.	.	.
8E\	8g/	.	.	.	.	.	.	.
.	.	.	8cc#\	.	.	.	.	.
8F#\	8a/	.	.	.	.	.	.	.
.	.	.	8dd\	.	.	.	.	.
8C#\J	8a/J	.	.	.	.	.	.	.
.	.	.	8ee\	.	.	.	.	.
!LO:LB:g=original	!	!	!	!	!	!	!	!
8D/L	8a\L	.	.	.	.	.	.	.
.	.	.	8ff#\	.	.	.	.	.
8BB/	8dd\	.	.	.	.	.	.	.
.	.	.	8gg#X\	.	.	.	.	.
8AA/	8cc#\	.	.	.	.	.	.	.
.	.	.	8aa\	.	.	.	.	.
8C#/J	8ee\J	.	.	.	.	.	.	.
.	.	.	16ggn\	.	.	.	.	.
!	!	!	!	!	!	!	!LO:LB:g=original	!
=50	=50	=50	=50	=50	=50	=50	=50	=50
!	!	!	!	!LO:DY:b:t=for	!	!	!	!
24D\LL	16a/	.	16ff#\	f	8d/	16r	16r	16r
24d\	.	.	.	.	.	.	.	.
.	8dd\	.	8dd\	.	.	8dd\	8dd\	8dd\
24c#\JJ	.	.	.	.	.	.	.	.
24B\LL	.	.	.	.	8r	.	.	.
24A\	.	.	.	.	.	.	.	.
.	8dd\	.	8dd\	.	.	8dd\	8dd\	8dd\
24G\JJ	.	.	.	.	.	.	.	.
24F#\LL	.	.	.	.	8d/	.	.	.
24B\	.	.	.	.	.	.	.	.
.	8dd\	.	8dd\	.	.	8dd\	8dd\	8dd\
24A\JJ	.	.	.	.	.	.	.	.
24G\LL	.	.	.	.	8r	.	.	.
24F#\	.	.	.	.	.	.	.	.
.	[>16dd\	.	[>16dd\	.	.	[>16dd\	[>16dd\	[>16dd\
24E\JJ	.	.	.	.	.	.	.	.
8D\L	24dd\LL]	.	24dd\LL]	.	8d/	24dd\LL]	24dd\LL]	24dd\LL]
.	24bb\	.	24ddd\	.	.	24ddd\	24bb\	24ddd\
.	24aa\JJ	.	24ccc#\JJ	.	.	24ccc#\JJ	24aa\JJ	24ccc#\JJ
8E\	24gg\LL	.	24bb\LL	.	8r	24bb\LL	24gg\LL	24bb\LL
.	24ff#\	.	24aa\	.	.	24aa\	24ff#\	24aa\
.	24ee\JJ	.	24gg\JJ	.	.	24gg\JJ	24ee\JJ	24gg\JJ
8F#\	24dd\LL	.	24ff#\LL	.	8d/	24ff#\LL	24dd\LL	24ff#\LL
.	24dd\	.	24bb\	.	.	24bb\	24dd\	24bb\
.	24cc#\JJ	.	24aa\JJ	.	.	24aa\JJ	24cc#\JJ	24aa\JJ
8G\J	24b/LL	.	24gg\LL	.	8r	24gg\LL	24b/LL	24gg\LL
.	24a/	.	24ff#\	.	.	24ff#\	24a/	24ff#\
.	24g/JJ	.	24ee\JJ	.	.	24ee\JJ	24g/JJ	24ee\JJ
!	!	!	!	!	!LO:LB:g=original	!	!	!
=51	=51	=51	=51	=51	=51	=51	=51	=51
!LO:TX:a:t=P:problem:mixed beam	!	!	!	!	!	!	!	!
8A\L	8f#/	.	8.dd\L	.	16r	8.dd\L	8f#/	8.dd\L
.	.	.	.	.	16d/LL	.	.	.
8A\	4dd\	.	.	.	16.f#/	.	4dd\	.
.	.	.	16ee\Jk	.	.	16ee\Jk	.	16ee\Jk
.	.	.	.	.	32d/JJk	.	.	.
8AA/	.	.	4eeT\	.	8a/L	4eeT\	.	4eeT\
!	!LO:SIC:v:t=custos dd	!	!	!	!	!	!	!
8AA/J	8cc#t\	.	.	.	8a/J	.	8cc#t\	.
!	!LO:LB:g=original	!	!	!	!	!	!	!
16.D/LL	16.dd\LL	.	16.dd\LL	.	16.dd\LL	16.dd\LL	16.dd\LL	16.dd\LL
32AA/K	32a\K	.	32a\K	.	32a\K	32a\K	32a\K	32a\K
16.FF#/	16.f#\	.	16.f#\	.	16.f#\	16.f#\	16.f#\	16.f#\
32AA/JJk	32a\JJk	.	32a\JJk	.	32a\JJk	32a\JJk	32a\JJk	32a\JJk
4DD/	4ff# 4a 4d/	.	4ff# 4a 4d/	.	4d/	4f#/	4d/	4d/
!	!LO:TX:b:t=fine	!	!LO:TX:b:t=fine	!	!LO:TX:b:t=fine.	!LO:TX:b:t=Fine.	!LO:TX:b:t=Fine	!LO:TX:b:t=fine.
==	==	==	==	==	==	==	==	==
*-	*-	*-	*-	*-	*-	*-	*-	*-
!!!system-decoration: [(g1)][(g2)][(s5,s6)][(s7)]
!!!RDF**kern: | = vertical stroke
!!!RDF**kern: > = above
!!!RDF**kern: < = below
!!!AIN: 2 clrno 2 oboe 2 violn
!!!ENC: Berenika Jozajtis
!!!END: 2022-03-27
!!!EED: Antoni Szymański
!!!EST: 2022-03-27
